src/assets/schedule.svg

<svg width="512" height="512" fill="none" xmlns="http://www.w3.org/2000/svg"><g clip-path="url(#a)"><path d="M246.23 426.666H51.191c-18.851 0-34.132-15.282-34.132-34.132V358.4h261.957l-32.786 68.266Z" fill="#D3DCFB"/><path d="M460.825 153.6V392.532H51.191c-18.851 0-34.132-15.282-34.132-34.133V153.6l238.95-85.334L460.825 153.6Z" fill="#EBF5FC"/><path d="M77.336 221.867H59.203a8 8 0 0 1-8-8v-18.133a8 8 0 0 1 8-8h18.133a8 8 0 0 1 8 8v18.133a8 8 0 0 1-8 8ZM145.603 221.867H127.47a8 8 0 0 1-8-8v-18.133a8 8 0 0 1 8-8h18.133a8 8 0 0 1 8 8v18.133a8 8 0 0 1-8 8ZM213.869 221.867h-18.133a8 8 0 0 1-8-8v-18.133a8 8 0 0 1 8-8h18.133a8 8 0 0 1 8 8v18.133a8 8 0 0 1-8 8ZM282.136 221.867h-18.133a8 8 0 0 1-8-8v-18.133a8 8 0 0 1 8-8h18.133a8 8 0 0 1 8 8v18.133a8 8 0 0 1-8 8ZM350.391 221.867h-18.133a8 8 0 0 1-8-8v-18.133a8 8 0 0 1 8-8h18.133a8 8 0 0 1 8 8v18.133a8 8 0 0 1-8 8ZM418.658 221.867h-18.133a8 8 0 0 1-8-8v-18.133a8 8 0 0 1 8-8h18.133a8 8 0 0 1 8 8v18.133a8 8 0 0 1-8 8ZM77.336 290.133H59.203a8 8 0 0 1-8-8V264a8 8 0 0 1 8-8h18.133a8 8 0 0 1 8 8v18.133a8 8 0 0 1-8 8ZM145.603 290.133H127.47a8 8 0 0 1-8-8V264a8 8 0 0 1 8-8h18.133a8 8 0 0 1 8 8v18.133a8 8 0 0 1-8 8ZM213.869 290.133h-18.133a8 8 0 0 1-8-8V264a8 8 0 0 1 8-8h18.133a8 8 0 0 1 8 8v18.133a8 8 0 0 1-8 8ZM290.136 290.133v-25.6a8.533 8.533 0 0 0-8.533-8.533h-17.067a8.533 8.533 0 0 0-8.533 8.533V281.6a8.533 8.533 0 0 0 8.533 8.533h25.6ZM77.336 358.4H59.203a8 8 0 0 1-8-8v-18.133a8 8 0 0 1 8-8h18.133a8 8 0 0 1 8 8V350.4a8 8 0 0 1-8 8ZM145.603 358.4H127.47a8 8 0 0 1-8-8v-18.133a8 8 0 0 1 8-8h18.133a8 8 0 0 1 8 8V350.4a8 8 0 0 1-8 8ZM213.869 358.4h-18.133a8 8 0 0 1-8-8v-18.133a8 8 0 0 1 8-8h18.133a8 8 0 0 1 8 8V350.4a8 8 0 0 1-8 8Z" fill="#3C58A0"/><path d="M418.417 187.733h-17.65c-1.068 0-2.085.21-3.022.579a8.237 8.237 0 0 1 5.219 7.662v17.65c0 3.484-2.165 6.456-5.219 7.662.937.37 1.954.58 3.022.58h17.65a8.242 8.242 0 0 0 8.242-8.241v-17.65a8.243 8.243 0 0 0-8.242-8.242ZM350.15 187.733H332.5c-1.068 0-2.085.21-3.022.579a8.237 8.237 0 0 1 5.219 7.662v17.65c0 3.484-2.165 6.456-5.219 7.662.937.37 1.954.58 3.022.58h17.65a8.24 8.24 0 0 0 8.241-8.241v-17.65a8.241 8.241 0 0 0-8.241-8.242ZM281.895 187.733h-17.65c-1.068 0-2.085.21-3.022.579 3.055 1.206 5.22 4.178 5.22 7.662v17.65c0 3.484-2.165 6.456-5.22 7.662.937.37 1.954.58 3.022.58h17.65a8.242 8.242 0 0 0 8.242-8.241v-17.65a8.243 8.243 0 0 0-8.242-8.242ZM213.628 187.733h-17.65c-1.068 0-2.085.21-3.022.579 3.055 1.206 5.22 4.178 5.22 7.662v17.65c0 3.484-2.165 6.456-5.22 7.662.937.37 1.954.58 3.022.58h17.65a8.242 8.242 0 0 0 8.242-8.241v-17.65a8.243 8.243 0 0 0-8.242-8.242ZM145.361 187.733h-17.65c-1.068 0-2.085.21-3.022.579a8.237 8.237 0 0 1 5.219 7.662v17.65c0 3.484-2.165 6.456-5.219 7.662.937.37 1.954.58 3.022.58h17.65a8.242 8.242 0 0 0 8.242-8.241v-17.65a8.242 8.242 0 0 0-8.242-8.242ZM77.095 187.733h-17.65c-1.068 0-2.085.21-3.022.579 3.055 1.206 5.22 4.178 5.22 7.662v17.65c0 3.484-2.165 6.456-5.22 7.662.937.37 1.954.58 3.022.58h17.65a8.242 8.242 0 0 0 8.242-8.241v-17.65a8.243 8.243 0 0 0-8.242-8.242ZM77.095 256h-17.65c-1.068 0-2.085.21-3.022.579 3.055 1.206 5.22 4.178 5.22 7.662v17.651c0 3.484-2.165 6.456-5.22 7.662.937.37 1.954.58 3.022.58h17.65a8.242 8.242 0 0 0 8.242-8.241v-17.651A8.243 8.243 0 0 0 77.095 256ZM77.095 324.267h-17.65c-1.068 0-2.085.21-3.022.579 3.055 1.206 5.22 4.178 5.22 7.662v17.651c0 3.484-2.165 6.456-5.22 7.662.937.37 1.954.58 3.022.58h17.65a8.242 8.242 0 0 0 8.242-8.241v-17.651a8.243 8.243 0 0 0-8.242-8.242ZM145.361 256h-17.65c-1.068 0-2.085.21-3.022.579a8.237 8.237 0 0 1 5.219 7.662v17.651c0 3.484-2.165 6.456-5.219 7.662.937.37 1.954.58 3.022.58h17.65a8.242 8.242 0 0 0 8.242-8.241v-17.651a8.242 8.242 0 0 0-8.242-8.242ZM145.361 324.267h-17.65c-1.068 0-2.085.21-3.022.579a8.237 8.237 0 0 1 5.219 7.662v17.651c0 3.484-2.165 6.456-5.219 7.662.937.37 1.954.58 3.022.58h17.65a8.242 8.242 0 0 0 8.242-8.241v-17.651a8.241 8.241 0 0 0-8.242-8.242ZM213.628 256h-17.65c-1.068 0-2.085.21-3.022.579 3.055 1.206 5.22 4.178 5.22 7.662v17.651c0 3.484-2.165 6.456-5.22 7.662.937.37 1.954.58 3.022.58h17.65a8.242 8.242 0 0 0 8.242-8.241v-17.651a8.243 8.243 0 0 0-8.242-8.242ZM290.136 290.133v-25.892a8.241 8.241 0 0 0-8.242-8.241h-17.65c-1.068 0-2.085.21-3.022.579 3.055 1.206 5.22 4.178 5.22 7.662v17.651c0 3.484-2.165 6.456-5.22 7.662.937.37 1.954.58 3.022.58h25.892v-.001ZM213.628 324.267h-17.65c-1.068 0-2.085.21-3.022.579 3.055 1.206 5.22 4.178 5.22 7.662v17.651c0 3.484-2.165 6.456-5.22 7.662.937.37 1.954.58 3.022.58h17.65a8.242 8.242 0 0 0 8.242-8.241v-17.651a8.242 8.242 0 0 0-8.242-8.242Z" fill="#2A428C"/><path d="M437.114 143.721V392.533h23.711V153.6l-23.711-9.879Z" fill="#D3DCFB"/><path d="M460.825 153.6V68.266c0-18.851-15.282-34.132-34.132-34.132H51.191c-18.851 0-34.132 15.281-34.132 34.132V153.6h443.766Z" fill="#EE9A38"/><path d="M124.609 75.993h-22.217a7.726 7.726 0 1 1 0-15.452h22.217a7.726 7.726 0 1 1 0 15.452ZM179.191 75.993h-22.217a7.726 7.726 0 1 1 0-15.452h22.217a7.725 7.725 0 0 1 7.726 7.726 7.725 7.725 0 0 1-7.726 7.726ZM320.887 75.993h-22.218a7.726 7.726 0 1 1 0-15.452h22.218a7.725 7.725 0 0 1 7.726 7.726 7.725 7.725 0 0 1-7.726 7.726ZM375.47 75.993h-22.218a7.726 7.726 0 1 1 0-15.452h22.218a7.726 7.726 0 1 1 0 15.452Z" fill="#FFC243"/><path d="M162.125 64c0 11.782-9.551 21.333-21.333 21.333-11.782 0-21.333-9.551-21.333-21.333V21.333C119.458 9.551 129.009 0 140.791 0s21.333 9.551 21.333 21.333V64h.001ZM358.403 64c0 11.782-9.551 21.333-21.333 21.333-11.782 0-21.334-9.551-21.334-21.333V21.333C315.736 9.551 325.287 0 337.069 0c11.782 0 21.333 9.551 21.333 21.333V64h.001Z" fill="#EBF5FC"/><path d="M337.069 0c-4.38 0-8.448 1.324-11.836 3.588 5.725 3.826 9.498 10.343 9.498 17.746V64c0 7.402-3.773 13.92-9.498 17.746a21.233 21.233 0 0 0 11.836 3.588c11.782 0 21.333-9.551 21.333-21.333V21.333C358.403 9.551 348.852 0 337.069 0ZM140.791 0c-4.38 0-8.448 1.324-11.836 3.588 5.725 3.826 9.498 10.343 9.498 17.746V64c0 7.402-3.773 13.92-9.498 17.746a21.233 21.233 0 0 0 11.836 3.588c11.782 0 21.333-9.551 21.333-21.333V21.333C162.125 9.551 152.574 0 140.791 0Z" fill="#D3DCFB"/><path d="M426.693 34.133H402.99c18.851 0 34.132 15.281 34.132 34.132V153.6h23.702V68.266c.001-18.85-15.281-34.133-34.131-34.133Z" fill="#FFC243"/><path d="M17.058 111.74h443.767v15.453H17.058V111.74Z" fill="#FFC243"/><path d="M366.942 512c70.692 0 128-57.308 128-128 0-70.692-57.308-128-128-128-70.692 0-128 57.308-128 128 0 70.692 57.308 128 128 128Z" fill="#3DB2FF"/><path d="M366.942 477.867c51.841 0 93.867-42.026 93.867-93.867s-42.026-93.867-93.867-93.867-93.867 42.026-93.867 93.867 42.026 93.867 93.867 93.867Z" fill="#EBF5FC"/><path d="M366.942 374.659a7.725 7.725 0 0 1-7.726-7.726v-42.667a7.726 7.726 0 1 1 15.452 0v42.667a7.726 7.726 0 0 1-7.726 7.726ZM409.609 391.726h-25.601a7.726 7.726 0 1 1 0-15.452h25.601a7.726 7.726 0 1 1 0 15.452Z" fill="#3C58A0"/><path d="M366.942 256c-3.995 0-7.945.193-11.847.551C420.232 262.53 471.247 317.303 471.247 384s-51.016 121.47-116.153 127.449c3.902.358 7.852.551 11.847.551 70.692 0 128-57.308 128-128 0-70.692-57.307-128-127.999-128Z" fill="#1886EA"/><path d="M366.942 290.133c-4.01 0-7.961.253-11.839.741 46.252 5.821 82.028 45.295 82.028 93.126s-35.776 87.305-82.028 93.126c3.878.488 7.829.741 11.839.741 51.841 0 93.867-42.026 93.867-93.867s-42.026-93.867-93.867-93.867Z" fill="#D3DCFB"/><path d="M366.942 401.067c9.426 0 17.067-7.641 17.067-17.067s-7.641-17.067-17.067-17.067-17.067 7.641-17.067 17.067 7.641 17.067 17.067 17.067Z" fill="#FFDD40"/></g><defs><clipPath id="a"><path fill="#fff" d="M0 0h512v512H0z"/></clipPath></defs></svg>

<svg width="512" height="512" viewBox="0 0 512 512" fill="none" xmlns="http://www.w3.org/2000/svg">
<g clip-path="url(#clip0)">
<path d="M246.23 426.666H51.191C32.34 426.666 17.059 411.384 17.059 392.534V358.4H279.016L246.23 426.666Z" fill="#D3DCFB"/>
<path d="M460.825 153.6V296.998V392.532H51.191C32.34 392.532 17.059 377.25 17.059 358.399V153.6L256.009 68.266L460.825 153.6Z" fill="#EBF5FC"/>
<path d="M77.336 221.867H59.203C54.785 221.867 51.203 218.285 51.203 213.867V195.734C51.203 191.316 54.785 187.734 59.203 187.734H77.336C81.754 187.734 85.336 191.316 85.336 195.734V213.867C85.336 218.285 81.754 221.867 77.336 221.867Z" fill="#3C58A0"/>
<path d="M145.603 221.867H127.47C123.052 221.867 119.47 218.285 119.47 213.867V195.734C119.47 191.316 123.052 187.734 127.47 187.734H145.603C150.021 187.734 153.603 191.316 153.603 195.734V213.867C153.603 218.285 150.021 221.867 145.603 221.867Z" fill="#3C58A0"/>
<path d="M213.869 221.867H195.736C191.318 221.867 187.736 218.285 187.736 213.867V195.734C187.736 191.316 191.318 187.734 195.736 187.734H213.869C218.287 187.734 221.869 191.316 221.869 195.734V213.867C221.869 218.285 218.288 221.867 213.869 221.867Z" fill="#3C58A0"/>
<path d="M282.136 221.867H264.003C259.585 221.867 256.003 218.285 256.003 213.867V195.734C256.003 191.316 259.585 187.734 264.003 187.734H282.136C286.554 187.734 290.136 191.316 290.136 195.734V213.867C290.136 218.285 286.554 221.867 282.136 221.867Z" fill="#3C58A0"/>
<path d="M350.391 221.867H332.258C327.84 221.867 324.258 218.285 324.258 213.867V195.734C324.258 191.316 327.84 187.734 332.258 187.734H350.391C354.809 187.734 358.391 191.316 358.391 195.734V213.867C358.391 218.285 354.81 221.867 350.391 221.867Z" fill="#3C58A0"/>
<path d="M418.658 221.867H400.525C396.107 221.867 392.525 218.285 392.525 213.867V195.734C392.525 191.316 396.107 187.734 400.525 187.734H418.658C423.076 187.734 426.658 191.316 426.658 195.734V213.867C426.658 218.285 423.076 221.867 418.658 221.867Z" fill="#3C58A0"/>
<path d="M77.336 290.133H59.203C54.785 290.133 51.203 286.551 51.203 282.133V264C51.203 259.582 54.785 256 59.203 256H77.336C81.754 256 85.336 259.582 85.336 264V282.133C85.336 286.552 81.754 290.133 77.336 290.133Z" fill="#3C58A0"/>
<path d="M145.603 290.133H127.47C123.052 290.133 119.47 286.551 119.47 282.133V264C119.47 259.582 123.052 256 127.47 256H145.603C150.021 256 153.603 259.582 153.603 264V282.133C153.603 286.552 150.021 290.133 145.603 290.133Z" fill="#3C58A0"/>
<path d="M213.869 290.133H195.736C191.318 290.133 187.736 286.551 187.736 282.133V264C187.736 259.582 191.318 256 195.736 256H213.869C218.287 256 221.869 259.582 221.869 264V282.133C221.869 286.552 218.288 290.133 213.869 290.133Z" fill="#3C58A0"/>
<path d="M290.136 290.133V264.533C290.136 259.82 286.316 256 281.603 256H264.536C259.823 256 256.003 259.82 256.003 264.533V281.6C256.003 286.313 259.824 290.133 264.536 290.133H290.136Z" fill="#3C58A0"/>
<path d="M77.336 358.4H59.203C54.785 358.4 51.203 354.818 51.203 350.4V332.267C51.203 327.849 54.785 324.267 59.203 324.267H77.336C81.754 324.267 85.336 327.849 85.336 332.267V350.4C85.336 354.818 81.754 358.4 77.336 358.4Z" fill="#3C58A0"/>
<path d="M145.603 358.4H127.47C123.052 358.4 119.47 354.818 119.47 350.4V332.267C119.47 327.849 123.052 324.267 127.47 324.267H145.603C150.021 324.267 153.603 327.849 153.603 332.267V350.4C153.603 354.818 150.021 358.4 145.603 358.4Z" fill="#3C58A0"/>
<path d="M213.869 358.4H195.736C191.318 358.4 187.736 354.818 187.736 350.4V332.267C187.736 327.849 191.318 324.267 195.736 324.267H213.869C218.287 324.267 221.869 327.849 221.869 332.267V350.4C221.869 354.818 218.288 358.4 213.869 358.4Z" fill="#3C58A0"/>
<path d="M418.417 187.733H400.767C399.699 187.733 398.682 187.943 397.745 188.312C400.8 189.518 402.964 192.49 402.964 195.974V213.624C402.964 217.108 400.799 220.08 397.745 221.286C398.682 221.656 399.699 221.866 400.767 221.866H418.417C422.969 221.866 426.659 218.176 426.659 213.625V195.975C426.658 191.423 422.968 187.733 418.417 187.733V187.733Z" fill="#2A428C"/>
<path d="M350.15 187.733H332.5C331.432 187.733 330.415 187.943 329.478 188.312C332.533 189.518 334.697 192.49 334.697 195.974V213.624C334.697 217.108 332.532 220.08 329.478 221.286C330.415 221.656 331.432 221.866 332.5 221.866H350.15C354.702 221.866 358.391 218.176 358.391 213.625V195.975C358.391 191.423 354.702 187.733 350.15 187.733V187.733Z" fill="#2A428C"/>
<path d="M281.895 187.733H264.245C263.177 187.733 262.16 187.943 261.223 188.312C264.278 189.518 266.443 192.49 266.443 195.974V213.624C266.443 217.108 264.278 220.08 261.223 221.286C262.16 221.656 263.177 221.866 264.245 221.866H281.895C286.447 221.866 290.137 218.176 290.137 213.625V195.975C290.136 191.423 286.446 187.733 281.895 187.733V187.733Z" fill="#2A428C"/>
<path d="M213.628 187.733H195.978C194.91 187.733 193.893 187.943 192.956 188.312C196.011 189.518 198.176 192.49 198.176 195.974V213.624C198.176 217.108 196.011 220.08 192.956 221.286C193.893 221.656 194.91 221.866 195.978 221.866H213.628C218.18 221.866 221.87 218.176 221.87 213.625V195.975C221.869 191.423 218.18 187.733 213.628 187.733V187.733Z" fill="#2A428C"/>
<path d="M145.361 187.733H127.711C126.643 187.733 125.626 187.943 124.689 188.312C127.744 189.518 129.908 192.49 129.908 195.974V213.624C129.908 217.108 127.743 220.08 124.689 221.286C125.626 221.656 126.643 221.866 127.711 221.866H145.361C149.913 221.866 153.603 218.176 153.603 213.625V195.975C153.603 191.423 149.913 187.733 145.361 187.733V187.733Z" fill="#2A428C"/>
<path d="M77.095 187.733H59.445C58.377 187.733 57.36 187.943 56.423 188.312C59.478 189.518 61.643 192.49 61.643 195.974V213.624C61.643 217.108 59.478 220.08 56.423 221.286C57.36 221.656 58.377 221.866 59.445 221.866H77.095C81.647 221.866 85.337 218.176 85.337 213.625V195.975C85.336 191.423 81.646 187.733 77.095 187.733V187.733Z" fill="#2A428C"/>
<path d="M77.095 256H59.445C58.377 256 57.36 256.21 56.423 256.579C59.478 257.785 61.643 260.757 61.643 264.241V281.892C61.643 285.376 59.478 288.348 56.423 289.554C57.36 289.924 58.377 290.134 59.445 290.134H77.095C81.647 290.134 85.337 286.444 85.337 281.893V264.242C85.336 259.69 81.646 256 77.095 256V256Z" fill="#2A428C"/>
<path d="M77.095 324.267H59.445C58.377 324.267 57.36 324.477 56.423 324.846C59.478 326.052 61.643 329.024 61.643 332.508V350.159C61.643 353.643 59.478 356.615 56.423 357.821C57.36 358.191 58.377 358.401 59.445 358.401H77.095C81.647 358.401 85.337 354.711 85.337 350.16V332.509C85.336 327.956 81.646 324.267 77.095 324.267V324.267Z" fill="#2A428C"/>
<path d="M145.361 256H127.711C126.643 256 125.626 256.21 124.689 256.579C127.744 257.785 129.908 260.757 129.908 264.241V281.892C129.908 285.376 127.743 288.348 124.689 289.554C125.626 289.924 126.643 290.134 127.711 290.134H145.361C149.913 290.134 153.603 286.444 153.603 281.893V264.242C153.603 259.69 149.913 256 145.361 256V256Z" fill="#2A428C"/>
<path d="M145.361 324.267H127.711C126.643 324.267 125.626 324.477 124.689 324.846C127.744 326.052 129.908 329.024 129.908 332.508V350.159C129.908 353.643 127.743 356.615 124.689 357.821C125.626 358.191 126.643 358.401 127.711 358.401H145.361C149.913 358.401 153.603 354.711 153.603 350.16V332.509C153.603 327.956 149.913 324.267 145.361 324.267V324.267Z" fill="#2A428C"/>
<path d="M213.628 256H195.978C194.91 256 193.893 256.21 192.956 256.579C196.011 257.785 198.176 260.757 198.176 264.241V281.892C198.176 285.376 196.011 288.348 192.956 289.554C193.893 289.924 194.91 290.134 195.978 290.134H213.628C218.18 290.134 221.87 286.444 221.87 281.893V264.242C221.869 259.69 218.18 256 213.628 256V256Z" fill="#2A428C"/>
<path d="M290.136 290.133V264.241C290.136 259.689 286.446 256 281.894 256H264.244C263.176 256 262.159 256.21 261.222 256.579C264.277 257.785 266.442 260.757 266.442 264.241V281.892C266.442 285.376 264.277 288.348 261.222 289.554C262.159 289.924 263.176 290.134 264.244 290.134H290.136V290.133Z" fill="#2A428C"/>
<path d="M213.628 324.267H195.978C194.91 324.267 193.893 324.477 192.956 324.846C196.011 326.052 198.176 329.024 198.176 332.508V350.159C198.176 353.643 196.011 356.615 192.956 357.821C193.893 358.191 194.91 358.401 195.978 358.401H213.628C218.18 358.401 221.87 354.711 221.87 350.16V332.509C221.869 327.956 218.18 324.267 213.628 324.267V324.267Z" fill="#2A428C"/>
<path d="M437.114 143.721V296.998V392.533H460.825V296.998V153.6L437.114 143.721Z" fill="#D3DCFB"/>
<path d="M460.825 153.6V68.266C460.825 49.415 445.543 34.134 426.693 34.134H51.191C32.34 34.134 17.059 49.415 17.059 68.266V153.6H460.825Z" fill="#EE9A38"/>
<path d="M124.609 75.993H102.392C98.124 75.993 94.666 72.534 94.666 68.267C94.666 64 98.125 60.541 102.392 60.541H124.609C128.877 60.541 132.335 64 132.335 68.267C132.335 72.534 128.876 75.993 124.609 75.993V75.993Z" fill="#FFC243"/>
<path d="M179.191 75.993H156.974C152.706 75.993 149.248 72.534 149.248 68.267C149.248 64 152.707 60.541 156.974 60.541H179.191C183.459 60.541 186.917 64 186.917 68.267C186.917 72.534 183.459 75.993 179.191 75.993V75.993Z" fill="#FFC243"/>
<path d="M320.887 75.993H298.669C294.401 75.993 290.943 72.534 290.943 68.267C290.943 64 294.402 60.541 298.669 60.541H320.887C325.155 60.541 328.613 64 328.613 68.267C328.613 72.534 325.155 75.993 320.887 75.993Z" fill="#FFC243"/>
<path d="M375.47 75.993H353.252C348.984 75.993 345.526 72.534 345.526 68.267C345.526 64 348.985 60.541 353.252 60.541H375.47C379.738 60.541 383.196 64 383.196 68.267C383.196 72.534 379.737 75.993 375.47 75.993Z" fill="#FFC243"/>
<path d="M162.125 64C162.125 75.782 152.574 85.333 140.792 85.333C129.01 85.333 119.459 75.782 119.459 64V21.333C119.458 9.551 129.009 0 140.791 0C152.573 0 162.124 9.551 162.124 21.333V64H162.125Z" fill="#EBF5FC"/>
<path d="M358.403 64C358.403 75.782 348.852 85.333 337.07 85.333C325.288 85.333 315.736 75.782 315.736 64V21.333C315.736 9.551 325.287 0 337.069 0C348.851 0 358.402 9.551 358.402 21.333V64H358.403Z" fill="#EBF5FC"/>
<path d="M337.069 0C332.689 0 328.621 1.324 325.233 3.588C330.958 7.414 334.731 13.931 334.731 21.334V64C334.731 71.402 330.958 77.92 325.233 81.746C328.62 84.009 332.689 85.334 337.069 85.334C348.851 85.334 358.402 75.783 358.402 64.001V21.333C358.403 9.551 348.852 0 337.069 0V0Z" fill="#D3DCFB"/>
<path d="M140.791 0C136.411 0 132.343 1.324 128.955 3.588C134.68 7.414 138.453 13.931 138.453 21.334V64C138.453 71.402 134.68 77.92 128.955 81.746C132.342 84.009 136.411 85.334 140.791 85.334C152.573 85.334 162.124 75.783 162.124 64.001V21.333C162.125 9.551 152.574 0 140.791 0V0Z" fill="#D3DCFB"/>
<path d="M426.693 34.1331H402.99C421.841 34.1331 437.122 49.4141 437.122 68.2651V153.6H460.824V68.2661C460.825 49.4151 445.543 34.1331 426.693 34.1331V34.1331Z" fill="#FFC243"/>
<path d="M17.058 111.74H460.825V127.193H17.058V111.74Z" fill="#FFC243"/>
<path d="M366.942 512C437.634 512 494.942 454.692 494.942 384C494.942 313.308 437.634 256 366.942 256C296.25 256 238.942 313.308 238.942 384C238.942 454.692 296.25 512 366.942 512Z" fill="#3DB2FF"/>
<path d="M366.942 477.867C418.783 477.867 460.809 435.841 460.809 384C460.809 332.159 418.783 290.133 366.942 290.133C315.101 290.133 273.075 332.159 273.075 384C273.075 435.841 315.101 477.867 366.942 477.867Z" fill="#EBF5FC"/>
<path d="M366.942 374.659C362.674 374.659 359.216 371.2 359.216 366.933V324.266C359.216 319.999 362.675 316.54 366.942 316.54C371.21 316.54 374.668 319.999 374.668 324.266V366.933C374.668 371.2 371.209 374.659 366.942 374.659Z" fill="#3C58A0"/>
<path d="M409.609 391.726H384.008C379.74 391.726 376.282 388.267 376.282 384C376.282 379.733 379.741 376.274 384.008 376.274H409.609C413.877 376.274 417.335 379.733 417.335 384C417.335 388.267 413.876 391.726 409.609 391.726Z" fill="#3C58A0"/>
<path d="M366.942 256C362.947 256 358.997 256.193 355.095 256.551C420.232 262.53 471.247 317.303 471.247 384C471.247 450.697 420.231 505.47 355.094 511.449C358.996 511.807 362.946 512 366.941 512C437.633 512 494.941 454.692 494.941 384C494.941 313.308 437.634 256 366.942 256Z" fill="#1886EA"/>
<path d="M366.942 290.133C362.932 290.133 358.981 290.386 355.103 290.874C401.355 296.695 437.131 336.169 437.131 384C437.131 431.831 401.355 471.305 355.103 477.126C358.981 477.614 362.932 477.867 366.942 477.867C418.783 477.867 460.809 435.841 460.809 384C460.809 332.159 418.783 290.133 366.942 290.133V290.133Z" fill="#D3DCFB"/>
<path d="M366.942 401.067C376.368 401.067 384.009 393.426 384.009 384C384.009 374.574 376.368 366.933 366.942 366.933C357.516 366.933 349.875 374.574 349.875 384C349.875 393.426 357.516 401.067 366.942 401.067Z" fill="#FFDD40"/>
</g>
<defs>
<clipPath id="clip0">
<rect width="512" height="512" fill="white"/>
</clipPath>
</defs>
</svg>
